X:165
T:John Brennan's
Z: id:dc-reel-152
M:C
L:1/8
K:D Major
z|D2FA d2ed|cdBd AFF2|BAGB ADFA|BAGF EGFE|!
D2FA d2ed|cdBd AFF2|BAGB ABde|faeg fdd:|!
e|f2df e2de|fedB AFF2|BAGB ADFA|BAGF EFGe|!
f2df e2de|fedB AFF2|BAGB ABde|faeg fdd:|!

